icons/documents.svg

<svg xmlns="http://www.w3.org/2000/svg" width="24" height="24" fill="none" viewBox="0 0 24 24">
  <path stroke="currentColor" stroke-linejoin="round" stroke-width="2" d="M13 3V10H20M6 7H5C4.44772 7 4 7.44772 4 8V20C4 20.5523 4.44772 21 5 21H14C14.5523 21 15 20.5523 15 20V19M8 4V16C8 16.5523 8.44772 17 9 17H19C19.5523 17 20 16.5523 20 16V9.38898C20 9.13879 19.9062 8.89769 19.7372 8.71326L14.7973 3.32428C14.6078 3.11765 14.3404 3 14.0601 3H9C8.44772 3 8 3.44772 8 4Z" />
</svg>

<svg xmlns="http://www.w3.org/2000/svg" width="24" height="24" fill="none" viewBox="0 0 24 24">
  <path stroke="currentColor" stroke-linecap="round" stroke-linejoin="round" stroke-width="2" d="M13 3v7h7M5.5 7H5a1 1 0 0 0-1 1v12a1 1 0 0 0 1 1h9a1 1 0 0 0 1-1v-.5M8 4v12a1 1 0 0 0 1 1h10a1 1 0 0 0 1-1V9.389a1 1 0 0 0-.263-.676l-4.94-5.389A1 1 0 0 0 14.06 3H9a1 1 0 0 0-1 1Z"/>
</svg>
